X: 14091
T: Young Collin is ye Pride of the Plain
T: Young Collin is the Pride of the Plain
C: James Oswald
N: Yes, both spellings "ye" and "the" are used in the title; the index page has both spelled "the".
%R: air, march
B: James Oswald "The Caledonian Pocket Companion" v.1 b.4 p.9 #1 (with 3/4 of the page continued from p.8)
S: https://ia800501.us.archive.org/18/items/caledonianpocket01rugg/caledonianpocket01rugg_bw.pdf
Z: 2020 John Chambers <jc:trillian.mit.edu>
M: 2/4
L: 1/8
K: Em
"_Slow"E |\
GB ef | g2 GA | B3 b | agfe |\
B2gf | e3 E | GBef | g2 fe |\
{e}^d3 e | (EG)(AB) | egde | B3 :: d |\
(cB)(AB) |
G2 (g/f/e) |\
B3 e | d2 (e/f/g) |\
(d<B) (A>B) | G3 g | (fe)(^de) | a2 g>a | b3 a |\
(ge)(de) | G2 (G/A/B) | A3 a | (g<e)(d<B) |\
(A<G) (A>B) | E3 :|


